img/slide3/map.svg

<svg fill="none" viewBox="0 0 378 900" xmlns="http://www.w3.org/2000/svg" xmlns:xlink="http://www.w3.org/1999/xlink"><clipPath id="a"><path d="m0 0h378v900h-378z"/></clipPath><g clip-path="url(#a)"><path d="m770.677-13.7272 15.717-2.8343 8.341-18.5201 3.124-5.54 3.285-4.4448 15.748-13.5921 8.309.5153 3.994 5.5722.805 6.7638-.161 3.8973-.419 2.1902-2.157 8.0844-37.327 54.6263-5.829 17.0706-3.703 18.2947 1.481 10.5967 5.378 20.8713 5.797 40.3577 10.048 28.312-.708 18.294-5.958 10.855-10.177 2.898-10.821-1.127-9.823-4.509-9.275-6.538-10.08-4.413-13.881.483-21.03 10.532-14.235 2.384-13.88-2.062-9.404-4.251-36.36 3.639 13.365 48.185-1.546 8.986-10.66 18.037-24.025 51.824-27.794 31.017-27.439 22.031-11.143 20.453-.676 6.57.257 7.183 1.965 9.888 5.346 9.566 16.296 18.134 7.085 13.077 3.801 10.918 1.191 43.804 8.18 20.807 5.83 3.994 21.191 8.987 19.935 16.04-48.244 19.454-8.083 8.052-6.86 11.627.74 10.79 13.205 34.077 7.504 28.086 6.731 9.921 8.019 7.762 7.568 9.566 13.977 23.513-64.958 26.346-27.536 20.646-1.836 8.858 2.448 10.178 11.787 21.805-.902 20.388-4.702 13.077-33.88 52.501 4.767 47.991-10.596 11.305.934 13.109-14.364 18.778-25.571-1.804-8.438 2.545-9.983 11.402-6.667 12.787-26.859 34.56-5.507 14.33-10.886 10.66-8.792 6.51-69.016-7.31-8.245-9.95-1.642-9.47.354-14.18 3.22-16.16 9.63-23.517 6.441-10.049 6.183-6.377 3.736-2.416 5.056-4.541 2.319-4.413 5.926-22.965 1.385-9.695-1.9-11.079-13.688-25.768-6.28-31.017-13.784 1.321-18.325 8.245-19.419 12.852-10.403 4.67-9.919-2.738-8.374-11.015-3.735-27.958-.999-15.363 7.311-38.039-45.442-31.468-25.732 39.81-4.219 25.252-9.372 16.33-39.452-4.67-130.75397-134.215-2.51203-3.221 3.63922-21.58 22.57608-71.278 15.1366-90.925 3.1239-4.896 6.7953-4.638.773 32.982-.773 10.532 23.6067-39.746 17.0689-13.978 16.7143 10.21h7.279v-9.695l-2.802-4.026-4.767-8.761-2.834-10.339 3.124-8.922 11.562-6.667 6.667 4.573 4.605 8.343 5.797 4.444 11.723-4.766 10.016-11.435 14.267-26.508-18.808-11.305-10.499-18.456 3.188-16.974 22.157-7.569 27.375-2.737 21.256-8.02 18.357-13.142 18.582-17.779-19.935 1.353-29.886 15.267-25.153 5.218-4.605 2.415-6.506.516-27.342-12.111-8.567-12.658-9.501-43.063 45.153-63.484-11.466-33.239-2.029 25.606-7.375 21.322-8.663 5.862-6.119-20.743-16.715 31.823-12.721 40.873-8.1155 43.256-2.8985 39.327-5.2495 25.188-12.8178 36.041-15.7807 33.53-14.6535 17.747 113.3315-533.1857-.129-35.8806.257-.0645 11.208-3.1242 51.69-6.9571 19.42 12.6258 37.809-13.5921 18.228-12.9158 14.299-.4187 10.628 6.0553 9.823 9.5982 16.843 8.9219 12.174-1.1273 8.953-6.0875 7.826-21.6121 5.217-8.7286 20.837-23.545 24.283 25.445 5.508 8.8899 8.663 17.3606 21.191 16.7808h9.694l3.929-6.8283-1.643-10.178-5.571-8.793-1.063-9.6949 1.192-8.1491 31.046-15.041 23.51 8.31 57.261-40.261 4.09-4.445 4.992-17.232 71.786 46.445 3.929 9.727 3.994 15.203-1.288 10.6288-.516 34.1736 88.984 42.9344z" style="fill-rule:evenodd;clip-rule:evenodd;fill:#fe6153;stroke:#f9f9f9;stroke-width:.5;stroke-linecap:round;stroke-linejoin:round"/><path d="m224.5 548c22.92 0 41.5-18.804 41.5-42s-18.58-42-41.5-42-41.5 18.804-41.5 42 18.58 42 41.5 42z" stroke="#fff"/><path d="m224.5 518c6.351 0 11.5-5.149 11.5-11.5s-5.149-11.5-11.5-11.5-11.5 5.149-11.5 11.5 5.149 11.5 11.5 11.5z" fill="#fff"/></g></svg>

<?xml version="1.0" encoding="UTF-8"?>
<svg height="100%" viewBox="0 0 378 900" fill="none" xmlns="http://www.w3.org/2000/svg">
  <g clip-path="url(#clip0)">
    <path fill-rule="evenodd" clip-rule="evenodd" d="M770.677 -13.7272L786.394 -16.5615L794.735 -35.0816L797.859 -40.6216L801.144 -45.0664L816.892 -58.6585L825.201 -58.1432L829.195 -52.571L830 -45.8072L829.839 -41.9099L829.42 -39.7197L827.263 -31.6353L789.936 22.991L784.107 40.0616L780.404 58.3563L781.885 68.953L787.263 89.8243L793.06 130.182L803.108 158.494L802.4 176.788L796.442 187.643L786.265 190.541L775.444 189.414L765.621 184.905L756.346 178.367L746.266 173.954L732.385 174.437L711.355 184.969L697.12 187.353L683.24 185.291L673.836 181.04L637.476 184.679L650.841 232.864L649.295 241.85L638.635 259.887L614.61 311.711L586.816 342.728L559.377 364.759L548.234 385.212L547.558 391.782L547.815 398.965L549.78 408.853L555.126 418.419L571.422 436.553L578.507 449.63L582.308 460.548L583.499 504.352L591.679 525.159L597.509 529.153L618.7 538.14L638.635 554.18L590.391 573.634L582.308 581.686L575.448 593.313L576.188 604.103L589.393 638.18L596.897 666.266L603.628 676.187L611.647 683.949L619.215 693.515L633.192 717.028L568.234 743.374L540.698 764.02L538.862 772.878L541.31 783.056L553.097 804.861L552.195 825.249L547.493 838.326L513.613 890.827L518.38 938.818L507.784 950.123L508.718 963.232L494.354 982.01L468.783 980.206L460.345 982.751L450.362 994.153L443.695 1006.94L416.836 1041.5L411.329 1055.83L400.443 1066.49L391.651 1073L322.635 1065.69L314.39 1055.74L312.748 1046.27L313.102 1032.09L316.322 1015.93L325.952 992.413L332.393 982.364L338.576 975.987L342.312 973.571L347.368 969.03L349.687 964.617L355.613 941.652L356.998 931.957L355.098 920.878L341.41 895.11L335.13 864.093L321.346 865.414L303.021 873.659L283.602 886.511L273.199 891.181L263.28 888.443L254.906 877.428L251.171 849.47L250.172 834.107L257.483 796.068L212.041 764.6L186.309 804.41L182.09 829.662L172.718 845.992L133.266 841.322L2.51203 707.107L0 703.886L3.63922 682.306L26.2153 611.028L41.3519 520.103L44.4758 515.207L51.2711 510.569L52.0441 543.551L51.2711 554.083L74.8778 514.337L91.9467 500.359L108.661 510.569H115.94V500.874L113.138 496.848L108.371 488.087L105.537 477.748L108.661 468.826L120.223 462.159L126.89 466.732L131.495 475.075L137.292 479.519L149.015 474.753L159.031 463.318L173.298 436.81L154.49 425.505L143.991 407.049L147.179 390.075L169.336 382.506L196.711 379.769L217.967 371.749L236.324 358.607L254.906 340.828L234.971 342.181L205.085 357.448L179.932 362.666L175.327 365.081L168.821 365.597L141.479 353.486L132.912 340.828L123.411 297.765L168.564 234.281L157.098 201.042L155.069 226.648L147.694 247.97L139.031 253.832L132.912 233.089L116.197 264.912L103.476 305.785L95.3605 349.041L92.462 388.368L87.2125 413.556L74.3947 449.597L58.614 483.127L43.9605 500.874L157.292 -32.3117L157.163 -68.1923L157.42 -68.2568L168.628 -71.381L220.318 -78.3381L239.738 -65.7123L277.547 -79.3044L295.775 -92.2202L310.074 -92.6389L320.702 -86.5836L330.525 -76.9854L347.368 -68.0635L359.542 -69.1908L368.495 -75.2783L376.321 -96.8904L381.538 -105.619L402.375 -129.164L426.658 -103.719L432.166 -94.8291L440.829 -77.4685L462.02 -60.6877H471.714L475.643 -67.516L474 -77.694L468.429 -86.487L467.366 -96.1819L468.558 -104.331L499.604 -119.372L523.114 -111.062L580.375 -151.323L584.465 -155.768L589.457 -173L661.243 -126.555L665.172 -116.828L669.166 -101.625L667.878 -90.9962L667.362 -56.8226L756.346 -13.8882L770.677 -13.7272Z" fill="#FE6153" stroke="#F9F9F9" stroke-width="0.5" stroke-linecap="round" stroke-linejoin="round"/>
    <path d="M224.5 548C247.42 548 266 529.196 266 506C266 482.804 247.42 464 224.5 464C201.58 464 183 482.804 183 506C183 529.196 201.58 548 224.5 548Z" stroke="white"/>
    <path d="M224.5 518C230.851 518 236 512.851 236 506.5C236 500.149 230.851 495 224.5 495C218.149 495 213 500.149 213 506.5C213 512.851 218.149 518 224.5 518Z" fill="white"/>
  </g>
  <defs>
    <clipPath id="clip0">
      <rect width="378" height="900" fill="white"/>
    </clipPath>
  </defs>
</svg>
